X: 4124
T: LADY TERFICHEN
R: Reel.
%R: reel
B: James Kerr "Merry Melodies" v.4 p.15 #124
Z: 2016 John Chambers <jc:trillian.mit.edu>
M: C|
L: 1/8
K: Em	% and G
|:\
EEGE A/A/A B2 | EGGB c/c/c (ce) |\
dBgB A/A/A B2 | EcBA G2D2 :|\
gdge agab | gadf g2d2 |
gege agab | gadf ggab |\
gegB A/A/A B2 | EGGB c/c/c e2 |\
dBgB A/A/A B2 | EcBA G2D2 |]

%%sep 1 1 500
%%sep 1 1 500

